img/icon-license-6.svg

<svg fill="none" height="16" viewBox="0 0 17 16" width="17" xmlns="http://www.w3.org/2000/svg"><path clip-rule="evenodd" d="m9.52334 1.5c0-.19891-.07901-.38968-.21967-.53033-.14065-.140652-.33141-.21967-.53033-.21967-.19891 0-.38967.079018-.53033.21967-.14065.14065-.21967.33142-.21967.53033v1.25h-.984c-.305 0-.604.08-.869.23l-1.288.737c-.03805.02177-.08116.03315-.125.033h-2.234c-.19891 0-.38967.07902-.53033.21967-.14065.14065-.21967.33142-.21967.53033s.07902.38968.21967.53033c.14066.14065.33142.21967.53033.21967h.428l-2.111996 4.692c-.062382.1388-.08106.2933-.053554.443.027507.1497.099896.2874.207554.395l.529996-.53-.529996.53v.001l.002.002.002.002.005996.006.016.015.045.04c.21032.1763.44055.3273.686.45.62971.307 1.32249.4625 2.023.454.88 0 1.556-.22 2.023-.454.24545-.1227.47569-.2737.686-.45l.045-.04.016-.015.006-.006.002-.002.001-.002-.529-.531.53.53c.10766-.1076.18005-.2453.20756-.395.0275-.1497.00883-.3042-.05356-.443l-2.112-4.692h.162c.305 0 .604-.08.869-.23l1.289-.737c.03776-.0216.0805-.03298.124-.033h.984v9.5h-2.5c-.19891 0-.38967.079-.53033.2197-.14065.1406-.21967.3314-.21967.5303s.07902.3897.21967.5303c.14066.1407.33142.2197.53033.2197h6.49996c.199 0 .3897-.079.5304-.2197.1406-.1406.2196-.3314.2196-.5303s-.079-.3897-.2196-.5303c-.1407-.1407-.3314-.2197-.5304-.2197h-2.49996v-9.5h.98396c.0435.00002.0863.0114.124.033l1.29.736c.264.152.563.231.868.231h.162l-2.112 4.692c-.0623.1388-.081.2933-.0535.443s.0999.2874.2075.395l.53-.53-.53.53v.001l.002.002.002.002.006.006.016.015.045.04c.2104.1762.4406.3273.686.45.6297.307 1.3225.4625 2.023.454.88 0 1.556-.22 2.023-.454.2455-.1227.4757-.2737.686-.45l.045-.04.01-.01.006-.005.006-.006.002-.002.001-.002-.529-.531.53.53c.1077-.1076.1801-.2453.2076-.395s.0088-.3042-.0536-.443l-2.111-4.692h.427c.199 0 .3897-.07902.5304-.21967.1406-.14065.2196-.33142.2196-.53033s-.079-.38968-.2196-.53033c-.1407-.14065-.3314-.21967-.5304-.21967h-2.234c-.0435-.00002-.0862-.0114-.124-.033l-1.29-.736c-.264-.15104-.5628-.23065-.867-.231h-.98496zm-7.055 8.477c.285.135.718.273 1.305.273s1.02-.138 1.305-.273l-1.305-2.9zm9.99996 0c.285.135.718.273 1.305.273s1.02-.138 1.305-.273l-1.305-2.9z" fill="#000" fill-rule="evenodd"/></svg>

<svg width="17" height="16" viewBox="0 0 17 16" fill="none" xmlns="http://www.w3.org/2000/svg">
<path fill-rule="evenodd" clip-rule="evenodd" d="M9.52334 1.5C9.52334 1.30109 9.44433 1.11032 9.30367 0.96967C9.16302 0.829018 8.97226 0.75 8.77334 0.75C8.57443 0.75 8.38367 0.829018 8.24301 0.96967C8.10236 1.11032 8.02334 1.30109 8.02334 1.5V2.75H7.03934C6.73434 2.75 6.43534 2.83 6.17034 2.98L4.88234 3.717C4.84429 3.73877 4.80118 3.75015 4.75734 3.75H2.52334C2.32443 3.75 2.13367 3.82902 1.99301 3.96967C1.85236 4.11032 1.77334 4.30109 1.77334 4.5C1.77334 4.69891 1.85236 4.88968 1.99301 5.03033C2.13367 5.17098 2.32443 5.25 2.52334 5.25H2.95134L0.839344 9.942C0.776962 10.0808 0.758284 10.2353 0.78579 10.385C0.813297 10.5347 0.885686 10.6724 0.993344 10.78L1.52334 10.25L0.993344 10.78V10.781L0.995344 10.783L0.997344 10.785L1.00334 10.791L1.01934 10.806L1.06434 10.846C1.27466 11.0223 1.50489 11.1733 1.75034 11.296C2.38005 11.603 3.07283 11.7585 3.77334 11.75C4.65334 11.75 5.32934 11.53 5.79634 11.296C6.04179 11.1733 6.27203 11.0223 6.48234 10.846L6.52734 10.806L6.54334 10.791L6.54934 10.785L6.55134 10.783L6.55234 10.781L6.02334 10.25L6.55334 10.78C6.661 10.6724 6.73339 10.5347 6.7609 10.385C6.7884 10.2353 6.76973 10.0808 6.70734 9.942L4.59534 5.25H4.75734C5.06234 5.25 5.36134 5.17 5.62634 5.02L6.91534 4.283C6.9531 4.2614 6.99584 4.25002 7.03934 4.25H8.02334V13.75H5.52334C5.32443 13.75 5.13367 13.829 4.99301 13.9697C4.85236 14.1103 4.77334 14.3011 4.77334 14.5C4.77334 14.6989 4.85236 14.8897 4.99301 15.0303C5.13367 15.171 5.32443 15.25 5.52334 15.25H12.0233C12.2223 15.25 12.413 15.171 12.5537 15.0303C12.6943 14.8897 12.7733 14.6989 12.7733 14.5C12.7733 14.3011 12.6943 14.1103 12.5537 13.9697C12.413 13.829 12.2223 13.75 12.0233 13.75H9.52334V4.25H10.5073C10.5508 4.25002 10.5936 4.2614 10.6313 4.283L11.9213 5.019C12.1853 5.171 12.4843 5.25 12.7893 5.25H12.9513L10.8393 9.942C10.777 10.0808 10.7583 10.2353 10.7858 10.385C10.8133 10.5347 10.8857 10.6724 10.9933 10.78L11.5233 10.25L10.9933 10.78V10.781L10.9953 10.783L10.9973 10.785L11.0033 10.791L11.0193 10.806L11.0643 10.846C11.2747 11.0222 11.5049 11.1733 11.7503 11.296C12.38 11.603 13.0728 11.7585 13.7733 11.75C14.6533 11.75 15.3293 11.53 15.7963 11.296C16.0418 11.1733 16.272 11.0223 16.4823 10.846L16.5273 10.806L16.5373 10.796L16.5433 10.791L16.5493 10.785L16.5513 10.783L16.5523 10.781L16.0233 10.25L16.5533 10.78C16.661 10.6724 16.7334 10.5347 16.7609 10.385C16.7884 10.2353 16.7697 10.0808 16.7073 9.942L14.5963 5.25H15.0233C15.2223 5.25 15.413 5.17098 15.5537 5.03033C15.6943 4.88968 15.7733 4.69891 15.7733 4.5C15.7733 4.30109 15.6943 4.11032 15.5537 3.96967C15.413 3.82902 15.2223 3.75 15.0233 3.75H12.7893C12.7458 3.74998 12.7031 3.7386 12.6653 3.717L11.3753 2.981C11.1113 2.82996 10.8125 2.75035 10.5083 2.75H9.52334V1.5ZM2.46834 9.977C2.75334 10.112 3.18634 10.25 3.77334 10.25C4.36034 10.25 4.79334 10.112 5.07834 9.977L3.77334 7.077L2.46834 9.977ZM12.4683 9.977C12.7533 10.112 13.1863 10.25 13.7733 10.25C14.3603 10.25 14.7933 10.112 15.0783 9.977L13.7733 7.077L12.4683 9.977Z" fill="black"/>
</svg>
